X:1
T:Title
%%score { 1 | 2 }
L:1/8
M:3/4
K:F
V:1 treble nm="Grand Piano"
V:2 bass 
V:1
 z2 z2[Q:1/4=100] C2 | F>G A2 [EG]2 | [FA]>[GB] [Ac]2 [FA]2 | [Ac]>[FA] [EG]2 [GB]2 | %4
[M:2/4] [GB] A3 |[M:1/4] C2 |[M:3/4] F>G A2 [EG]2 | [FA]>[GB] [Ac]2 [Fd]2 | [Fc][FA] [EG]2 [EA]2 | %9
[M:2/4] [EG] F3 |[M:1/4] c2 |[M:3/4] c>A c3 d | c>A c2 c2 | d>c B2 A2 |[M:2/4] [FA] [EG]3 | %15
[M:1/4] [EG]2 |[M:3/4] [FA]>[GB] [Ac]3 [FA] |[M:7/8] [FB]>[Fc] [Fd]3 [Ff]2 | %18
[M:3/4] [Fc][FA] [EG]2 [EA]2 |[M:2/4] [EG] F3 |] %20
V:2
 z2 z2 [F,A,]2 | [F,A,C]>[F,B,C] [F,CF]2 [C,C]2 | [F,C]>[F,C] [F,C]2 [F,C]2 | %3
 [C,C]>[C,C] [C,C]2 [C,C]2 |[M:2/4] [F,C] [F,CF]3 |[M:1/4] [F,A,]2 | %6
[M:3/4] [F,A,C]>[F,B,C] [F,CF]2 [C,C]2 | [F,C]>[F,C] [F,C]2 [B,,B,]2 | [C,A,][C,C] [C,C]2 [C,C]2 | %9
[M:2/4] [C,B,] [F,A,]3 |[M:1/4][K:treble] [F,A,F]2 |[M:3/4] [F,A,F]>[F,CF] [F,A,F]3 [F,B,F] | %12
 [F,A,F]>[F,CF] [F,A,F]2 [F,A,F]2 | [B,F]>[A,CF][K:bass] [G,CE]2 [F,CF]2 |[M:2/4] [C,C] [C,C]3 | %15
[M:1/4] [C,C]2 |[M:3/4] [F,C]>[F,C] [F,C]3 [_E,C] |[M:7/8] [D,D]>[C,A,] [B,,B,]3 [=B,,_A,]2 | %18
[M:3/4] [C,A,][C,C] [C,C]2 [C,C]2 |[M:2/4] [C,B,] [F,A,]3 |] %20

